X:1
T:(Such a) Getting Upstairs I Never Did See
R:hp 16 reel
C:Trad arr. P J Headford
S:John Locke
B:Opus Pocus - John Kirkpatrick & Sue Harris 1988 Dragonfly Music
Z:P J Headford 2005
M:4/4
L:1/8
Q:1/4=160
K:G
|:dc|B2G2 D2G2|FGAB cedc|B2G2 D2G2|FGAF G2:|\
d2|B3c d2G2|B2c2 d4|
e2d2 c2B2|A2B2 cedc|\
B2G2 D2G2|FGAB cedc|B2G2 D2G2|FGAF G2|]

